src/assets/filled/LanguageSquare.svg

<?xml version="1.0" encoding="UTF-8"?>
<svg width="24" height="24" viewBox="0 0 24 24" xmlns="http://www.w3.org/2000/svg">
 <path d="m16.19 2h-8.38c-3.64 0-5.81 2.17-5.81 5.81v8.37c0 3.65 2.17 5.82 5.81 5.82h8.37c3.64 0 5.81-2.17 5.81-5.81v-8.38c0.01-3.64-2.16-5.81-5.8-5.81zm0.81 15.47c-1.71 0-3.31-0.74-4.59-2.11-1.45 1.31-3.34 2.11-5.41 2.11-0.41 0-0.75-0.34-0.75-0.75s0.34-0.75 0.75-0.75c3.47 0 6.34-2.75 6.71-6.27h-6.7c-0.41 0-0.75-0.34-0.75-0.75s0.34-0.74 0.75-0.74h4.24v-0.93c0-0.41 0.34-0.75 0.75-0.75s0.75 0.34 0.75 0.75v0.93h1.69c0.02 0 0.04-0.01 0.06-0.01s0.04 0.01 0.06 0.01h2.43c0.41 0 0.75 0.34 0.75 0.75s-0.34 0.75-0.75 0.75h-1.78c-0.15 1.71-0.79 3.28-1.77 4.56 1 1.11 2.25 1.71 3.56 1.71 0.41 0 0.75 0.34 0.75 0.75s-0.34 0.74-0.75 0.74z"/>
</svg>

<svg width="24" height="24" viewBox="0 0 24 24"  xmlns="http://www.w3.org/2000/svg">
<path d="M16.19 2H7.81C4.17 2 2 4.17 2 7.81V16.18C2 19.83 4.17 22 7.81 22H16.18C19.82 22 21.99 19.83 21.99 16.19V7.81C22 4.17 19.83 2 16.19 2ZM17 17.47C15.29 17.47 13.69 16.73 12.41 15.36C10.96 16.67 9.07 17.47 7 17.47C6.59 17.47 6.25 17.13 6.25 16.72C6.25 16.31 6.59 15.97 7 15.97C10.47 15.97 13.34 13.22 13.71 9.7H12H7.01C6.6 9.7 6.26 9.36 6.26 8.95C6.26 8.54 6.6 8.21 7.01 8.21H11.25V7.28C11.25 6.87 11.59 6.53 12 6.53C12.41 6.53 12.75 6.87 12.75 7.28V8.21H14.44C14.46 8.21 14.48 8.2 14.5 8.2C14.52 8.2 14.54 8.21 14.56 8.21H16.99C17.4 8.21 17.74 8.55 17.74 8.96C17.74 9.37 17.4 9.71 16.99 9.71H15.21C15.06 11.42 14.42 12.99 13.44 14.27C14.44 15.38 15.69 15.98 17 15.98C17.41 15.98 17.75 16.32 17.75 16.73C17.75 17.14 17.41 17.47 17 17.47Z" />
</svg>
